dist/svgs/crypto-icons/icons/doge.svg

<?xml version="1.0" encoding="UTF-8" standalone="yes"?>
<svg xmlns="http://www.w3.org/2000/svg" xmlns:xlink="http://www.w3.org/1999/xlink" width="512px" height="512px" viewBox="0 0 384 384" version="1.1">
  <g id="surface1">
    <path style=" stroke:none;fill-rule:nonzero;fill:rgb(0%,0%,0%);fill-opacity:1;" d="M 167.878906 -0.0898438 L 57.613281 -0.0898438 L 57.613281 170.722656 L 12.328125 170.722656 L 12.328125 212.558594 L 57.613281 212.558594 L 57.613281 383.371094 L 186.09375 383.371094 C 186.09375 383.371094 366.746094 398.503906 366.746094 194.839844 C 366.746094 -5.507812 193.96875 -0.0898438 167.878906 -0.0898438 Z M 183.140625 312.488281 L 129.976562 312.488281 L 129.976562 212.558594 L 209.71875 212.558594 L 209.71875 170.722656 L 129.976562 170.722656 L 129.976562 70.792969 L 180.675781 70.792969 C 199.628906 70.792969 295 78.421875 295.144531 196.222656 C 295.292969 314.027344 196.796875 312.488281 183.140625 312.488281 Z M 183.140625 312.488281 "/>
  </g>
</svg>

<svg xmlns="http://www.w3.org/2000/svg" viewBox="0 0 384 384"><path d="M167.879-.09H57.613v170.813H12.328v41.836h45.285V383.37h128.48s180.653 15.133 180.653-188.531C366.746-5.508 193.97-.09 167.88-.09zm15.262 312.578h-53.164v-99.93h79.742v-41.835h-79.742v-99.93h50.699c18.953 0 114.324 7.629 114.469 125.43.148 117.804-98.348 116.265-112.004 116.265zm0 0"/></svg>
